src/components/ae-icon/icons/transfer.svg

<?xml version="1.0" encoding="UTF-8"?>
<svg width="24px" height="24px" viewBox="0 0 24 24" version="1.1" xmlns="http://www.w3.org/2000/svg" xmlns:xlink="http://www.w3.org/1999/xlink">
    <!-- Generator: Sketch 52.1 (67048) - http://www.bohemiancoding.com/sketch -->
    <title>atoms/icons/ui/transfer</title>
    <desc>Created with Sketch.</desc>
    <defs>
        <path d="M17.1436645,5.67320261 L14.1437908,5.67320261 C13.6817487,5.67320261 13.3071895,5.29864345 13.3071895,4.83660131 C13.3071895,4.37455916 13.6817487,4 14.1437908,4 L19.1633987,4 C19.6254408,4 20,4.37455916 20,4.83660131 L20,9.85620915 C20,10.3182513 19.6254408,10.6928105 19.1633987,10.6928105 C18.7013565,10.6928105 18.3267974,10.3182513 18.3267974,9.85620915 L18.3267974,6.85633553 L13.898756,11.2843769 C13.5720429,11.61109 13.0423362,11.61109 12.7156231,11.2843769 C12.38891,10.9576638 12.38891,10.4279571 12.7156231,10.101244 L17.1436645,5.67320261 Z M6.85633553,18.3267974 L9.85620915,18.3267974 C10.3182513,18.3267974 10.6928105,18.7013565 10.6928105,19.1633987 C10.6928105,19.6254408 10.3182513,20 9.85620915,20 L4.83660131,20 C4.37455916,20 4,19.6254408 4,19.1633987 L4,14.1437908 C4,13.6817487 4.37455916,13.3071895 4.83660131,13.3071895 C5.29864345,13.3071895 5.67320261,13.6817487 5.67320261,14.1437908 L5.67320261,17.1436645 L10.101244,12.7156231 C10.4279571,12.38891 10.9576638,12.38891 11.2843769,12.7156231 C11.61109,13.0423362 11.61109,13.5720429 11.2843769,13.898756 L6.85633553,18.3267974 Z" id="path-1"></path>
    </defs>
    <g id="atoms/icons/ui/transfer" stroke="none" stroke-width="1" fill="none" fill-rule="evenodd">
        <mask id="mask-2" fill="white">
            <use xlink:href="#path-1"></use>
        </mask>
        <use id="Combined-Shape" fill="#000000" fill-rule="nonzero" xlink:href="#path-1"></use>
    </g>
</svg>

<svg width="24" height="24" xmlns="http://www.w3.org/2000/svg" xmlns:xlink="http://www.w3.org/1999/xlink"><defs><path d="M17.144 5.673h-3a.837.837 0 0 1 0-1.673h5.02c.461 0 .836.375.836.837v5.02a.837.837 0 0 1-1.673 0v-3l-4.428 4.427a.837.837 0 0 1-1.183-1.183l4.428-4.428zM6.856 18.327h3a.837.837 0 1 1 0 1.673h-5.02A.837.837 0 0 1 4 19.163v-5.02a.837.837 0 0 1 1.673 0v3l4.428-4.427a.837.837 0 0 1 1.183 1.183l-4.428 4.428z" id="a"/></defs><use fill="#000" fill-rule="nonzero" xlink:href="#a"/></svg>
